polaris-icons/icons/new-icons/FirstVisitMajor.svg

<svg width="20" height="20" viewBox="0 0 20 20" fill="none" xmlns="http://www.w3.org/2000/svg">
<path d="M8.79545 8.68927L9.50001 8.38732V11.4999H8.50001C8.0858 11.4999 7.75001 11.8357 7.75001 12.2499C7.75001 12.6641 8.0858 12.9999 8.50001 12.9999H12C12.4142 12.9999 12.75 12.6641 12.75 12.2499C12.75 11.8357 12.4142 11.4999 12 11.4999H11V8.00818C11 7.11079 10.0824 6.50575 9.25761 6.85925L8.20457 7.31055C7.82385 7.47372 7.64748 7.91463 7.81065 8.29535C7.97382 8.67607 8.41473 8.85244 8.79545 8.68927Z" fill="#4A4A4A"/>
<path fill-rule="evenodd" clip-rule="evenodd" d="M12.0943 3.51441C11.2723 1.72371 8.72775 1.72371 7.90568 3.51441C7.73011 3.89684 7.28948 4.07936 6.89491 3.93308C5.04741 3.24816 3.24816 5.04741 3.93308 6.89491C4.07936 7.28948 3.89684 7.73011 3.51441 7.90568C1.72371 8.72775 1.72371 11.2723 3.51441 12.0943C3.89684 12.2699 4.07936 12.7105 3.93308 13.1051C3.24816 14.9526 5.04741 16.7519 6.89491 16.0669C7.28948 15.9207 7.73011 16.1032 7.90568 16.4856C8.72775 18.2763 11.2723 18.2763 12.0943 16.4856C12.2699 16.1032 12.7105 15.9207 13.1051 16.0669C14.9526 16.7519 16.7519 14.9526 16.0669 13.1051C15.9207 12.7105 16.1032 12.2699 16.4856 12.0943C18.2763 11.2723 18.2763 8.72775 16.4856 7.90568C16.1032 7.73011 15.9207 7.28948 16.0669 6.89491C16.7519 5.04741 14.9526 3.24816 13.1051 3.93308C12.7105 4.07936 12.2699 3.89684 12.0943 3.51441ZM9.26889 4.14023C9.55587 3.51511 10.4441 3.51511 10.7311 4.14023C11.2341 5.23573 12.4963 5.75856 13.6265 5.33954C14.2715 5.10044 14.8996 5.72855 14.6605 6.3735C14.2415 7.50376 14.7643 8.76597 15.8598 9.26889C16.4849 9.55587 16.4849 10.4441 15.8598 10.7311C14.7643 11.2341 14.2415 12.4963 14.6605 13.6265C14.8996 14.2715 14.2715 14.8996 13.6265 14.6605C12.4963 14.2415 11.2341 14.7643 10.7311 15.8598C10.4441 16.4849 9.55587 16.4849 9.26889 15.8598C8.76597 14.7643 7.50376 14.2415 6.3735 14.6605C5.72855 14.8996 5.10044 14.2715 5.33954 13.6265C5.75856 12.4963 5.23573 11.2341 4.14023 10.7311C3.51511 10.4441 3.51511 9.55587 4.14023 9.26889C5.23573 8.76597 5.75856 7.50376 5.33954 6.3735C5.10044 5.72855 5.72855 5.10044 6.3735 5.33954C7.50376 5.75856 8.76597 5.23573 9.26889 4.14023Z" fill="#4A4A4A"/>
</svg>

<svg viewBox="0 0 20 20" xmlns="http://www.w3.org/2000/svg"><path d="m8.795 8.69.705-.303v3.113h-1a.75.75 0 0 0 0 1.5h3.5a.75.75 0 0 0 0-1.5h-1v-3.492a1.25 1.25 0 0 0-1.742-1.149l-1.053.452a.75.75 0 0 0 .59 1.378Z" fill="#5C5F62"/><path fill-rule="evenodd" d="M12.094 3.514c-.822-1.79-3.366-1.79-4.188 0a.804.804 0 0 1-1.011.42c-1.848-.686-3.647 1.113-2.962 2.96a.804.804 0 0 1-.419 1.012c-1.79.822-1.79 3.366 0 4.188a.805.805 0 0 1 .42 1.011c-.686 1.848 1.113 3.647 2.96 2.962a.805.805 0 0 1 1.012.419c.822 1.79 3.366 1.79 4.188 0a.805.805 0 0 1 1.011-.42c1.848.686 3.647-1.113 2.962-2.96a.805.805 0 0 1 .419-1.012c1.79-.822 1.79-3.366 0-4.188a.805.805 0 0 1-.42-1.011c.686-1.848-1.113-3.647-2.96-2.962a.805.805 0 0 1-1.012-.419Zm-2.825.626a.804.804 0 0 1 1.462 0 2.305 2.305 0 0 0 2.896 1.2.804.804 0 0 1 1.034 1.034 2.304 2.304 0 0 0 1.199 2.895.804.804 0 0 1 0 1.462 2.305 2.305 0 0 0-1.2 2.896.805.805 0 0 1-1.034 1.034 2.305 2.305 0 0 0-2.895 1.199.804.804 0 0 1-1.462 0 2.304 2.304 0 0 0-2.896-1.2.804.804 0 0 1-1.033-1.034 2.305 2.305 0 0 0-1.2-2.895.804.804 0 0 1 0-1.462 2.304 2.304 0 0 0 1.2-2.896.804.804 0 0 1 1.034-1.033 2.304 2.304 0 0 0 2.895-1.2Z" fill="#5C5F62"/></svg>
